X: 1
M: 6/8
K: C
L: 1/8
|:G | G3 GGG | F4 FF | E2 C D2 E | D3 D2 :|
w: Se-nho-ra quem cha-mais quan-do pas-so'ao vos-so la-do
w: Se-nho-ra quem o-lhai pon-do'os o-lhos no pas-sa-do
|:z| C3 D3 | F3 E3 | C3  D3 | D3 z2 :|
w: Não há ro-sas pra vos dar 
w: te-nho'al-guem por quem espe-rar
</abc>
<abc>
